symbols/web/remove_done/materialsymbolsrounded/remove_done_wght500_48px.svg

<svg xmlns="http://www.w3.org/2000/svg" height="48" width="48"><path d="M41.45 42.45 28.9 29.9l-4.6 4.6q-.3.3-.575.425-.275.125-.625.125t-.65-.125q-.3-.125-.55-.425l-9.05-9.05q-.55-.5-.525-1.25.025-.75.525-1.25.55-.55 1.2-.525.65.025 1.15.525l7.9 7.9 3.35-3.4L6.3 7.35q-.5-.45-.475-1.15.025-.7.475-1.15.5-.5 1.1-.475.6.025 1.1.475l35.2 35.2q.45.5.45 1.125t-.45 1.075q-.5.5-1.125.475-.625-.025-1.125-.475Zm-8.1-17-2.45-2.4L41.1 12.8q.5-.5 1.225-.5.725 0 1.225.5.5.55.5 1.25t-.5 1.2Zm-4.4-4.4-2.45-2.4 5.8-5.8q.5-.5 1.225-.5.725 0 1.225.5.5.5.5 1.225 0 .725-.5 1.225ZM14.6 35.35q-.35 0-.625-.125T13.4 34.8l-9.05-9.05q-.5-.5-.475-1.25.025-.75.475-1.25.55-.55 1.225-.525.675.025 1.175.525l7.8 7.85 2.5 2.5-1.25 1.2q-.3.3-.575.425-.275.125-.625.125Z"/></svg>

<svg xmlns="http://www.w3.org/2000/svg" height="48" width="48"><path d="M41.45 42.45 28.9 29.9 24.3 34.5Q24 34.8 23.725 34.925Q23.45 35.05 23.1 35.05Q22.75 35.05 22.45 34.925Q22.15 34.8 21.9 34.5L12.85 25.45Q12.3 24.95 12.325 24.2Q12.35 23.45 12.85 22.95Q13.4 22.4 14.05 22.425Q14.7 22.45 15.2 22.95L23.1 30.85L26.45 27.45L6.3 7.35Q5.8 6.9 5.825 6.2Q5.85 5.5 6.3 5.05Q6.8 4.55 7.4 4.575Q8 4.6 8.5 5.05L43.7 40.25Q44.15 40.75 44.15 41.375Q44.15 42 43.7 42.45Q43.2 42.95 42.575 42.925Q41.95 42.9 41.45 42.45ZM33.35 25.45 30.9 23.05 41.1 12.8Q41.6 12.3 42.325 12.3Q43.05 12.3 43.55 12.8Q44.05 13.35 44.05 14.05Q44.05 14.75 43.55 15.25ZM28.95 21.05 26.5 18.65 32.3 12.85Q32.8 12.35 33.525 12.35Q34.25 12.35 34.75 12.85Q35.25 13.35 35.25 14.075Q35.25 14.8 34.75 15.3ZM14.6 35.35Q14.25 35.35 13.975 35.225Q13.7 35.1 13.4 34.8L4.35 25.75Q3.85 25.25 3.875 24.5Q3.9 23.75 4.35 23.25Q4.9 22.7 5.575 22.725Q6.25 22.75 6.75 23.25L14.55 31.1L17.05 33.6L15.8 34.8Q15.5 35.1 15.225 35.225Q14.95 35.35 14.6 35.35Z"/></svg>
